v/0.4.11/design-resources/icons/wf_icons/construction-barrier.svg

<?xml version="1.0" encoding="utf-8"?>
<!-- Generated by IcoMoon.io -->
<!DOCTYPE svg PUBLIC "-//W3C//DTD SVG 1.1//EN" "http://www.w3.org/Graphics/SVG/1.1/DTD/svg11.dtd">
<svg version="1.1" xmlns="http://www.w3.org/2000/svg" xmlns:xlink="http://www.w3.org/1999/xlink" width="512" height="512" viewBox="0 0 512 512">
<g>
</g>
	<path d="M512 208v-128c0-8.8-7.2-16-16-16h-480c-8.8 0-16 7.2-16 16v128c0 8.8 7.2 16 16 16h60.175l-76.175 224h96l32.646-96h254.707l32.647 96h96l-76.175-224h60.175c8.8 0 16-7.2 16-16zM416 96l-96 96h-96l96-96h96zM128 96h96l-96 96h-96l96-96zM372.472 320h-232.943l32.646-96h167.65l32.647 96zM480 192h-64l64-64v64z" fill="#595959" />
</svg>

<svg xmlns="http://www.w3.org/2000/svg" width="512" height="512" viewBox="0 0 512 512"><path stroke="#449FDB" d="M0 0"/><path d="M512 208V80c0-8.8-7.2-16-16-16H16C7.2 64 0 71.2 0 80v128c0 8.8 7.2 16 16 16h60.175L0 448h96l32.646-96h254.707L416 448h96l-76.175-224H496c8.8 0 16-7.2 16-16zM416 96l-96 96h-96l96-96h96zm-288 0h96l-96 96H32l96-96zm244.472 224H139.53l32.645-96h167.65l32.647 96zM480 192h-64l64-64v64z" fill="#595959"/></svg>
